!! 00000] TT[WS
!!!OTL: Duoyu jitian bujian meimei xiaoyengyeng
!!!ARE: Asia, China, Shanxi Hequ
!! Ethnic Group: Han
!! WII, 28
!!!SCT: J0437
!!!YEM: Copyright 1995, estate of Helmut Schaffrath.
**kern
*ICvox
*Ivox
*M2/4
*k[f#]
*G:
{8a
16g#
16a
8e
8e
=1
8a
16g#
16a
8e
8e
=2
8.b
16b
8b
8dd
=3
2ee}
=4
{8.b
16bb
8b
8b
=5
8g#
8a
8g
8a
=6
4ee
8g
8f#
=7
2e}
==
!!!AGN: Shange, Shanqu. Qingge
!!!ONB: ESAC (Essen Associative Code) Database: CHINA
!!!AMT: simple duple
!!!AIN: vox
!!!EED: Helmut Schaffrath
!!!EEV: 1.0
*-
